icon-themes/sifr_svg/cmd/lc_macrosmenu.svg

<svg viewBox="0 0 24 24" xmlns="http://www.w3.org/2000/svg"><path d="m5 2v12a4 4 0 0 0 -4 4 4 4 0 0 0 4 4h5.72a8 8 0 0 1 -1.64-2h-2.08-2a2 2 0 0 1 -2-2 2 2 0 0 1 2-2h2v-12h10 2a2 2 0 0 1 2 2 2 2 0 0 1 -2 2h-2v.0703125a8 8 0 0 1 3.76 1.5096875 4 4 0 0 0 2.24-3.58 4 4 0 0 0 -4-4zm11 7a7 7 0 0 0 -7 7 7 7 0 0 0 7 7 7 7 0 0 0 7-7 7 7 0 0 0 -7-7zm0 2a5 5 0 0 1 5 5 5 5 0 0 1 -5 5 5 5 0 0 1 -5-5 5 5 0 0 1 5-5zm-2 2v6l5-3z" fill="#555753"/></svg>

<svg viewBox="0 0 24 24" xmlns="http://www.w3.org/2000/svg">
  <path
     style="fill:#555753"
     d="M 5 2 L 5 14 A 4 4 0 0 0 1 18 A 4 4 0 0 0 5 22 L 10.72 22 A 8 8 0 0 1 9.08 20 L 7 20 L 5 20 A 2 2 0 0 1 3 18 A 2 2 0 0 1 5 16 L 7 16 L 7 4 L 17 4 L 19 4 A 2 2 0 0 1 21 6 A 2 2 0 0 1 19 8 L 17 8 L 17 8.0703125 A 8 8 0 0 1 20.76 9.58 A 4 4 0 0 0 23 6 A 4 4 0 0 0 19 2 L 5 2 z M 16 9 A 7 7 0 0 0 9 16 A 7 7 0 0 0 16 23 A 7 7 0 0 0 23 16 A 7 7 0 0 0 16 9 z M 16 11 A 5 5 0 0 1 21 16 A 5 5 0 0 1 16 21 A 5 5 0 0 1 11 16 A 5 5 0 0 1 16 11 z M 14 13 L 14 19 L 19 16 L 14 13 z "
     />
</svg>
